static/logos/ramp-wordmark-color.svg

<svg width="100" height="27" viewBox="0 0 100 27" fill="none" xmlns="http://www.w3.org/2000/svg">
<g clip-path="url(#clip0_1_1367)">
<path d="M6.91935 9.01313C4.53432 9.01313 3.36352 11.115 3.36352 13.9216V20.9551H0V6.11285H3.3046V9.9635H3.36197C4.06756 7.59599 5.47407 5.68295 7.64353 5.68295C9.16945 5.68295 9.813 6.21571 9.813 6.21571L8.29484 9.27259C8.29484 9.27106 7.81101 9.01313 6.91935 9.01313ZM47.5809 11.0505V20.9535H44.3043V12.2558C44.3043 9.7593 43.5212 8.43737 41.5207 8.43737C39.4489 8.43737 38.4472 10.1094 38.4472 13.3167V20.9519H35.2V12.2558C35.2 9.85603 34.4261 8.43737 32.4459 8.43737C30.1849 8.43737 29.3149 10.418 29.3149 13.3167V20.9519H26.0104V6.11285H29.3149V9.47373H29.3444C29.8592 7.14767 31.2643 5.71213 33.6352 5.71213C35.9861 5.71213 37.5183 6.97571 38.0999 9.21579C38.6535 7.06015 40.1267 5.71213 42.3907 5.71213C45.5495 5.71213 47.5809 7.69273 47.5809 11.0505ZM16.4237 5.68295C13.3828 5.68295 11.3932 7.11082 10.486 9.68867L13.2851 10.7066C13.7952 9.1513 14.8591 8.26541 16.4827 8.26541C18.3095 8.26541 19.3825 9.06993 19.3825 10.3044C19.3825 11.5664 18.5281 11.8305 16.5989 12.1422C14.4528 12.4876 9.34933 12.6012 9.34933 16.9063C9.34933 19.4288 11.4583 21.3265 14.6264 21.3265C17.0084 21.3265 18.6304 20.3532 19.3809 18.5415H19.4104V20.9535H22.6871V11.8259C22.6856 7.83243 20.6759 5.68295 16.4237 5.68295ZM19.4679 13.9676C19.4679 17.0797 17.928 19.0788 15.4669 19.0788C13.7271 19.0788 12.6834 18.1023 12.6834 16.6944C12.6834 15.374 13.7565 14.4575 15.8143 14.0797C17.9201 13.6928 18.9809 13.2154 19.4679 12.07V13.9676ZM59.2363 5.71213C56.7303 5.71213 55.074 7.08933 54.3653 9.15898V6.11285H50.8856V26.6665H54.3359V17.9089H54.3653C55.1329 20.1505 56.7317 21.3833 59.2363 21.3833C63.2076 21.3833 66.0501 18.1116 66.0501 13.4887C66.0485 8.89797 63.2076 5.71213 59.2363 5.71213ZM58.3803 18.6289C55.6292 18.6289 54.1033 16.6329 54.1033 13.5331C54.1033 10.4333 55.8107 8.43737 58.3803 8.43737C60.9483 8.43737 62.6571 10.53 62.6571 13.5331C62.6571 16.5379 60.9497 18.6289 58.3803 18.6289Z" fill="black"/>
<path d="M100.226 20.8863V20.9789L86.7593 20.9836V20.8863C88.7013 19.7896 90.0417 18.6725 91.2479 17.5052H96.7776L100.226 20.8863ZM96.8895 3.34821L93.476 0H93.3768C93.3768 0 93.4344 6.23985 87.7032 11.9149C82.0951 17.4691 75.5 17.4816 75.5 17.4816V17.5789L78.9775 20.9852C78.9775 20.9852 85.4765 21.0495 91.2175 15.4184C96.9375 9.80616 96.8895 3.34821 96.8895 3.34821Z" fill="black"/>
</g>
<defs>
<clipPath id="clip0_1_1367">
<rect width="100" height="26.6667" fill="white"/>
</clipPath>
</defs>
</svg>

<svg xmlns="http://www.w3.org/2000/svg" width="237.037" height="64" fill="none" viewBox="0 0 100 27"><g fill="#000" clip-path="url(#a)"><path d="M6.92 9.013c-2.386 0-3.556 2.102-3.556 4.909v7.033H0V6.113h3.305v3.85h.057c.706-2.367 2.112-4.28 4.282-4.28 1.525 0 2.169.533 2.169.533L8.295 9.273c0-.002-.484-.26-1.376-.26Zm40.66 2.037v9.903h-3.276v-8.697c0-2.497-.783-3.819-2.783-3.819-2.072 0-3.074 1.672-3.074 4.88v7.635H35.2v-8.696c0-2.4-.774-3.819-2.754-3.819-2.261 0-3.131 1.981-3.131 4.88v7.635H26.01V6.112h3.305v3.362h.03c.514-2.326 1.92-3.762 4.29-3.762 2.351 0 3.883 1.264 4.465 3.504.553-2.156 2.027-3.504 4.29-3.504 3.16 0 5.19 1.98 5.19 5.338ZM16.425 5.683c-3.041 0-5.03 1.428-5.938 4.006l2.8 1.018c.51-1.556 1.573-2.442 3.197-2.442 1.826 0 2.9.805 2.9 2.04 0 1.261-.855 1.526-2.784 1.837-2.146.346-7.25.46-7.25 4.764 0 2.523 2.11 4.42 5.277 4.42 2.382 0 4.004-.973 4.755-2.785h.03v2.412h3.276v-9.127c-.001-3.994-2.011-6.143-6.263-6.143Zm3.044 8.285c0 3.112-1.54 5.11-4.001 5.11-1.74 0-2.784-.976-2.784-2.384 0-1.32 1.074-2.236 3.131-2.614 2.106-.387 3.167-.865 3.654-2.01v1.898Zm39.768-8.256c-2.506 0-4.162 1.377-4.87 3.447V6.113h-3.48v20.553h3.45V17.91h.03c.767 2.242 2.366 3.474 4.87 3.474 3.972 0 6.814-3.271 6.814-7.894-.001-4.591-2.842-7.777-6.814-7.777ZM58.38 18.63c-2.75 0-4.277-1.996-4.277-5.096s1.708-5.096 4.277-5.096c2.568 0 4.277 2.093 4.277 5.096 0 3.005-1.707 5.096-4.277 5.096ZM100.226 20.886v.093l-13.467.005v-.098c1.942-1.096 3.283-2.213 4.489-3.38h5.53l3.448 3.38ZM96.889 3.348 93.477 0h-.1s.058 6.24-5.673 11.915C82.095 17.469 75.5 17.482 75.5 17.482v.097l3.478 3.406s6.499.064 12.24-5.567c5.72-5.612 5.671-12.07 5.671-12.07Z"/></g><defs><clipPath id="a"><path fill="#fff" d="M0 0h100v26.667H0z"/></clipPath></defs></svg>
